build/redact/HideRightPanelOutline.svg

<svg xmlns="http://www.w3.org/2000/svg" fill="none" viewBox="0 0 24 24" focusable="false"><path d="M0 0H24V24H0z"/><path fill="#74767B" fill-rule="evenodd" d="M13.9 16.6957C13.6503 16.9536 13.657 17.3651 13.915 17.6148C14.1729 17.8645 14.5844 17.8578 14.8341 17.5999L19.8171 12.4521C20.0611 12.2001 20.0611 11.8 19.8171 11.5479L14.8341 6.4002C14.5844 6.14226 14.1729 6.13557 13.915 6.38525C13.657 6.63493 13.6503 7.04643 13.9 7.30437L17.8174 11.3513L7.17852 11.3513C6.81953 11.3513 6.52852 11.6423 6.52852 12.0013C6.52852 12.3603 6.81953 12.6513 7.17852 12.6513L17.815 12.6513L13.9 16.6957ZM5.3 19.3213C5.3 19.6961 5.00898 20 4.65 20C4.29101 20 4 19.6961 4 19.3213L4.00006 4.67873C4.00006 4.30388 4.29108 4 4.65006 4C5.00905 4 5.30006 4.30388 5.30006 4.67873L5.3 19.3213Z"/></svg>

<svg xmlns="http://www.w3.org/2000/svg" fill="none" viewBox="0 0 24 24" focusable="false"><path fill="#74767B" fill-rule="evenodd" d="M13.89 16.69c-.24.26-.24.67.02.92s.67.24.92-.02l4.98-5.14c.25-.25.25-.65 0-.91L14.83 6.4a.65.65 0 0 0-.92-.02c-.26.25-.26.66-.02.92l3.92 4.05H7.17c-.36 0-.65.29-.65.65s.29.65.65.65h10.64zm-8.6 2.63c0 .37-.29.68-.65.68-.35 0-.64-.31-.64-.68V4.67c0-.37.29-.67.64-.67.36 0 .66.3.66.67z"/></svg>
